resources/svg/cart-plus.svg

<svg width="15" height="15" viewBox="0 0 15 15" fill="none" xmlns="http://www.w3.org/2000/svg">
<path fill-rule="evenodd" clip-rule="evenodd" d="M0.0209961 0.643671L0.978822 0.356323L1.47192 2H12.4999C13.8806 2 14.9999 3.11929 14.9999 4.5V11H3.12789L0.0209961 0.643671ZM8 9V7H6V6H8V4H9V6H11V7H9V9H8Z" fill="black"/>
<path fill-rule="evenodd" clip-rule="evenodd" d="M4 13.5C4 12.6716 4.67157 12 5.5 12C6.32843 12 7 12.6716 7 13.5C7 14.3284 6.32843 15 5.5 15C4.67157 15 4 14.3284 4 13.5ZM5.5 13C5.22386 13 5 13.2239 5 13.5C5 13.7761 5.22386 14 5.5 14C5.77614 14 6 13.7761 6 13.5C6 13.2239 5.77614 13 5.5 13Z" fill="black"/>
<path fill-rule="evenodd" clip-rule="evenodd" d="M11 13.5C11 12.6716 11.6716 12 12.5 12C13.3284 12 14 12.6716 14 13.5C14 14.3284 13.3284 15 12.5 15C11.6716 15 11 14.3284 11 13.5ZM12.5 13C12.2239 13 12 13.2239 12 13.5C12 13.7761 12.2239 14 12.5 14C12.7761 14 13 13.7761 13 13.5C13 13.2239 12.7761 13 12.5 13Z" fill="black"/>
</svg>

<svg viewBox="0 0 15 15" fill="none" xmlns="http://www.w3.org/2000/svg" fill="currentColor"><path fill-rule="evenodd" clip-rule="evenodd" d="M.021.644L.979.356 1.472 2H12.5A2.5 2.5 0 0115 4.5V11H3.128L.02.644zM8 9V7H6V6h2V4h1v2h2v1H9v2H8zm-4 4.5a1.5 1.5 0 113 0 1.5 1.5 0 01-3 0zm1.5-.5a.5.5 0 100 1 .5.5 0 000-1zm5.5.5a1.5 1.5 0 113 0 1.5 1.5 0 01-3 0zm1.5-.5a.5.5 0 100 1 .5.5 0 000-1z" fill="currentColor"/></svg>
